X:7885
T:Da kommt die liebe Sonne wieder
C:Karl Marx
O:Germany
Z:Transcribed by Frank Nordberg - http://www.musicaviva.com
F:http://abc.musicaviva.com/tunes/marx-karl/marx-liebe-sonne.abc
M:C
L:1/4
K:G
G|AGdd|cB/A/BG/G/|BdBG|A2zG|
w:Da kommt die lie-be Son-ne_ wie-der, da kommt sie wie-der her! Sie
AGdd|cB/A/BG/A/|B/c/ d/c/ BA|G2z|]
w:schlum-mert nicht un wird nicht_ m\"u-der und l\"auft_ doch_ im-mer sehr.
W:
W:Da komm die liebe Sonne wieder,
W:da kommt  sie wieder her!
W:Sie schlummer nicht un wird nicht m\"uder
W:und la\"auft doch immer sehr.
W:
W:
W:  From Musica Viva - http://www.musicaviva.com
W:  the Internet center for free sheet music downloads.

